packages/kaspersky-hexa-ui-icons/src/iconsSVGs/48/Keyboard.svg

<svg xmlns="http://www.w3.org/2000/svg" width="48" height="48" fill="none" viewBox="0 0 48 48"><path fill="currentColor" fill-rule="evenodd" d="M25 17v-2c0-2.2091 1.7909-4 4-4 3.3137 0 6-2.6863 6-6V3h-2v2c0 2.2091-1.7909 4-4 4-3.3137 0-6 2.6863-6 6v2H0v28h48V17zm21 26H2V19h44zM8 25H5v-3h3zm5 0h-3v-3h3zm5 0h-3v-3h3zm5 0h-3v-3h3zm5 0h-3v-3h3zm5 0h-3v-3h3zm5 0h-3v-3h3zm5 0h-3v-3h3zM8 30H5v-3h3zm5 0h-3v-3h3zm5 0h-3v-3h3zm5 0h-3v-3h3zm5 0h-3v-3h3zm5 0h-3v-3h3zm5 0h-3v-3h3zm5 0h-3v-3h3zM8 35H5v-3h3zm5 0h-3v-3h3zm5 0h-3v-3h3zm5 0h-3v-3h3zm5 0h-3v-3h3zm5 0h-3v-3h3zm5 0h-3v-3h3zm5 0h-3v-3h3zM8 40H5v-3h3zm5 0h-3v-3h3zm20 0H15v-3h18zm5 0h-3v-3h3zm5 0h-3v-3h3z" clip-rule="evenodd"/></svg>

<svg width="48" height="48" viewBox="0 0 48 48" fill="none" xmlns="http://www.w3.org/2000/svg">
<path fill-rule="evenodd" clip-rule="evenodd" d="M25 17V15C25 12.7909 26.7909 11 29 11C32.3137 11 35 8.31371 35 5V3H33V5C33 7.20914 31.2091 9 29 9C25.6863 9 23 11.6863 23 15V17H0V45H48V17H25ZM46 43H2V19H46V43ZM8 25H5V22H8V25ZM13 25H10V22H13V25ZM18 25H15V22H18V25ZM23 25H20V22H23V25ZM28 25H25V22H28V25ZM33 25H30V22H33V25ZM38 25H35V22H38V25ZM43 25H40V22H43V25ZM8 30H5V27H8V30ZM13 30H10V27H13V30ZM18 30H15V27H18V30ZM23 30H20V27H23V30ZM28 30H25V27H28V30ZM33 30H30V27H33V30ZM38 30H35V27H38V30ZM43 30H40V27H43V30ZM8 35H5V32H8V35ZM13 35H10V32H13V35ZM18 35H15V32H18V35ZM23 35H20V32H23V35ZM28 35H25V32H28V35ZM33 35H30V32H33V35ZM38 35H35V32H38V35ZM43 35H40V32H43V35ZM8 40H5V37H8V40ZM13 40H10V37H13V40ZM33 40H15V37H33V40ZM38 40H35V37H38V40ZM43 40H40V37H43V40Z"  fill="currentColor"/>
</svg>
